X:1
T:A Man Without a Woman
M:4/4
L:1/8
K:G
 GA| B4 z ^AB A| B A4 AA A| A4 z BA G| G6 GG| E4 z GG E| D G4 z GA|\
 B4 z GB B| A6 BB| B4 z BB A| B A4 AA A| A4 z BA G| G4 z DE G| B2 B2 B2 BB|\
 B A2 G2 DE G| B A4 BB A| B A4 DD E| B A2 G B2 A2| G6||
